X: 8886
T: Curds And Cream
R: jig
M: 6/8
K: Amixolydian
A2a acA|B2g gBA|A2a acA|dBG A3:|
cde gee|fdd gee|cde gee|bgf e3|
cde gee|fdd gee|agf gfe|dBG A3||

